melody-of-light/img/icons/icomoon/phone.svg

<svg width="14" height="14" viewBox="0 0 14 14" fill="none" xmlns="http://www.w3.org/2000/svg">
<path fill-rule="evenodd" clip-rule="evenodd" d="M2.91667 3.125C2.73986 3.125 2.57029 3.19524 2.44526 3.32026C2.32337 3.44215 2.25355 3.60639 2.25013 3.77839C2.38478 5.92559 3.29848 7.95007 4.82004 9.47163C6.34159 10.9932 8.36607 11.9069 10.5133 12.0415C10.6853 12.0381 10.8495 11.9683 10.9714 11.8464C11.0964 11.7214 11.1667 11.5518 11.1667 11.375V9.38018L8.95967 8.49738L8.30375 9.59058C8.16987 9.81372 7.88722 9.89686 7.65384 9.78176C6.28841 9.10836 5.18331 8.00326 4.5099 6.63782C4.39481 6.40445 4.47795 6.1218 4.70109 5.98792L5.79428 5.332L4.91148 3.125H2.91667ZM1.73816 2.61316C2.05072 2.30059 2.47464 2.125 2.91667 2.125H5.25C5.45445 2.125 5.63831 2.24948 5.71424 2.4393L6.8809 5.35597C6.97205 5.58383 6.88435 5.84415 6.67391 5.97041L5.62578 6.59929C6.13094 7.45007 6.8416 8.16073 7.69237 8.66589L8.32125 7.61775C8.44752 7.40731 8.70784 7.31962 8.9357 7.41076L11.8524 8.57743C12.0422 8.65336 12.1667 8.83721 12.1667 9.04167V11.375C12.1667 11.817 11.9911 12.241 11.6785 12.5535C11.366 12.8661 10.942 13.0417 10.5 13.0417C10.4899 13.0417 10.4798 13.0414 10.4697 13.0407C8.07234 12.8951 5.81122 11.877 4.11293 10.1787C2.41464 8.48044 1.39661 6.21932 1.25092 3.822C1.25031 3.8119 1.25 3.80178 1.25 3.79167C1.25 3.34964 1.42559 2.92572 1.73816 2.61316Z" fill="#93939F"/>
</svg>

<svg width="14" height="14" fill="none" xmlns="http://www.w3.org/2000/svg"><path fill-rule="evenodd" clip-rule="evenodd" d="M2.917 3.125a.667.667 0 00-.667.653 8.833 8.833 0 008.263 8.263.666.666 0 00.654-.666V9.38L8.96 8.497l-.656 1.094a.5.5 0 01-.65.19A6.917 6.917 0 014.51 6.639a.5.5 0 01.191-.65l1.093-.656-.883-2.207H2.917zm-1.179-.512a1.667 1.667 0 011.179-.488H5.25a.5.5 0 01.464.314l1.167 2.917a.5.5 0 01-.207.614l-1.048.63a5.917 5.917 0 002.066 2.066l.63-1.048a.5.5 0 01.614-.207l2.916 1.166a.5.5 0 01.315.465v2.333a1.666 1.666 0 01-1.697 1.666 9.833 9.833 0 01-9.22-9.25c0-.441.176-.865.488-1.178z" fill="#93939F"/></svg>
